X: 23
T:Jenny's Bawbee
% Nottingham Music Database
S:Kevin Briggs
M:4/4
L:1/8
R:Hornpipe
K:D
P:A
fg|"D"abag f/2d3/2(3def|"G"gBed "A7"c/2A3/2A2|"D"abag f/2d3/2df|\
"G"B/2d3/2"A7"c/2e3/2 "D"d2:|
P:B
de|"D"fd"G"ge "D"f/2d3/2(3def|"G"gBed "A7"c/2A3/2A2|"D"fd"G"ge "D"f/2d3/2df|\
"G"B/2d3/2"A7"c/2e3/2 "D"d2:|


